!!!OTL-incipit: Die Mutter ist das groesste Glueck auf Erden, was je ein Menschenherz besitzen kann.
!!!ARE: Europa, Mitteleuropa, Deutschland, Schlesien, Gleiwitz
!!!SCT: D0192
!!!TXL: @@DE
!!!YEM: Copyright 1995, estate of Helmut Schaffrath.
**kern	**text
*ICvox	*
*M4/4	*
*k[f#]	*
*G:	*
{8dd	Die
8ddL	Mut-
8ccJ	-ter
=1	=1
4.b	ist
8dd	das
8ggL	größ-
8ff#J	-te
8eeL	Glück
8bJ	auf
=2	=2
4dd	Er-
4cc	-den
8r}	.
{8cc	was
8ccL	je
8bJ	ein
=3	=3
4.a	Men-
8dd	-schen-
8ddL	-herz
8ddJ	be-
8eeL	-sit-
8ddJ	-zen
=4	=4
2b	kann.
8r}	.
{8gg	Sie
8ggL	kränkt
8ggJ	sich
=5	=5
4.ee	ab
8ff#	und
8.aaL	denkt,
16ggJ	wie
8ff#L	wird's
8eeJ	noch
=6	=6
4ee	wer-
4dd	-den,
8r}	.
{8gg	sie
8ggL	sorgt
8bJ	und
=7	=7
4a	schafft
4dd	vom
8.ff#L	Mor-
16eeJ	-gen
8ddL	bis
8ccJ	zur
=8	=8
2b	Nacht.
8r}	.
==	==
!!!AGN: Mutter - Lied
!! Sonderzeichen in der Notation; Inzipit = Variante zum Lied
!!!ONB: ESAC (Essen Associative Code) Database: DVA
!!!AMT: simple quadruple
!!!AIN: vox
!!!EED: Helmut Schaffrath
!!!EEV: 1.0
!!!YOR: https://freidok.uni-freiburg.de/data/150373
!!!EFL: A215836
!!!ENC: Anna Maria Matuszewska
!!!EEV: 2025/06/04
*-	*-
